local/share/icons/dracula-icons-main/scalable/apps/accessories-dictionary.svg

<?xml version="1.0" encoding="UTF-8"?>
<svg xmlns="http://www.w3.org/2000/svg" xmlns:xlink="http://www.w3.org/1999/xlink" width="64" height="64" viewBox="0 0 64 64">
<defs>
<filter id="filter-remove-color" x="0%" y="0%" width="100%" height="100%">
<feColorMatrix color-interpolation-filters="sRGB" values="0 0 0 0 1 0 0 0 0 1 0 0 0 0 1 0 0 0 1 0" />
</filter>
<mask id="mask-0">
<g filter="url(#filter-remove-color)">
<rect x="-6.4" y="-6.4" width="76.8" height="76.8" fill="rgb(0%, 0%, 0%)" fill-opacity="0.2"/>
</g>
</mask>
<clipPath id="clip-0">
<rect x="0" y="0" width="17" height="17"/>
</clipPath>
<g id="source-1476" clip-path="url(#clip-0)">
<path fill-rule="evenodd" fill="rgb(0%, 0%, 0%)" fill-opacity="1" d="M 3.96875 2.921875 C 2.296875 4.277344 1.324219 6.3125 1.324219 8.464844 C 1.324219 10.617188 2.296875 12.65625 3.96875 14.011719 Z M 3.96875 2.921875 "/>
</g>
<mask id="mask-1">
<g filter="url(#filter-remove-color)">
<rect x="-6.4" y="-6.4" width="76.8" height="76.8" fill="rgb(0%, 0%, 0%)" fill-opacity="0.5"/>
</g>
</mask>
<clipPath id="clip-1">
<rect x="0" y="0" width="17" height="17"/>
</clipPath>
<g id="source-1481" clip-path="url(#clip-1)">
<path fill-rule="nonzero" fill="rgb(100%, 100%, 100%)" fill-opacity="1" d="M 9.261719 10.660156 L 8.730469 12.101562 L 9.796875 12.101562 Z M 9.042969 10.273438 L 9.488281 10.273438 L 10.589844 13.171875 L 10.183594 13.171875 L 9.917969 12.429688 L 8.613281 12.429688 L 8.347656 13.171875 L 7.9375 13.171875 Z M 9.042969 10.273438 "/>
<path fill-rule="nonzero" fill="rgb(100%, 100%, 100%)" fill-opacity="1" d="M 11.988281 12.078125 C 11.699219 12.078125 11.5 12.113281 11.386719 12.179688 C 11.277344 12.246094 11.21875 12.359375 11.21875 12.515625 C 11.21875 12.644531 11.261719 12.746094 11.34375 12.820312 C 11.429688 12.894531 11.542969 12.929688 11.6875 12.929688 C 11.882812 12.929688 12.042969 12.859375 12.160156 12.71875 C 12.28125 12.578125 12.34375 12.390625 12.34375 12.160156 L 12.34375 12.078125 Z M 12.699219 11.933594 L 12.699219 13.171875 L 12.34375 13.171875 L 12.34375 12.84375 C 12.261719 12.976562 12.160156 13.074219 12.039062 13.136719 C 11.914062 13.199219 11.765625 13.230469 11.589844 13.230469 C 11.367188 13.230469 11.191406 13.167969 11.058594 13.042969 C 10.929688 12.917969 10.863281 12.75 10.863281 12.539062 C 10.863281 12.296875 10.945312 12.109375 11.109375 11.988281 C 11.273438 11.863281 11.515625 11.800781 11.839844 11.800781 L 12.34375 11.800781 L 12.34375 11.765625 C 12.34375 11.601562 12.289062 11.472656 12.179688 11.386719 C 12.070312 11.292969 11.921875 11.25 11.726562 11.25 C 11.601562 11.25 11.480469 11.265625 11.363281 11.292969 C 11.242188 11.324219 11.128906 11.367188 11.023438 11.425781 L 11.023438 11.097656 C 11.152344 11.046875 11.28125 11.007812 11.402344 10.984375 C 11.527344 10.960938 11.644531 10.945312 11.761719 10.945312 C 12.078125 10.945312 12.3125 11.027344 12.464844 11.191406 C 12.621094 11.355469 12.699219 11.601562 12.699219 11.933594 Z M 12.699219 11.933594 "/>
</g>
</defs>
<path fill-rule="nonzero" fill="rgb(78.431373%, 21.568627%, 21.568627%)" fill-opacity="1" d="M 15.609375 8.464844 C 15.609375 12.410156 12.410156 15.609375 8.464844 15.609375 C 4.519531 15.609375 1.324219 12.410156 1.324219 8.464844 C 1.324219 4.519531 4.519531 1.324219 8.464844 1.324219 C 12.410156 1.324219 15.609375 4.519531 15.609375 8.464844 Z M 15.609375 8.464844 "/>
<path fill-rule="nonzero" fill="rgb(100%, 100%, 100%)" fill-opacity="1" d="M 6.613281 1.570312 C 5.859375 1.773438 5.144531 2.097656 4.496094 2.535156 L 4.496094 7.671875 L 5.558594 6.613281 L 6.613281 7.671875 Z M 6.613281 1.570312 "/>
<g mask="url(#mask-0)">
<use xlink:href="#source-1476"/>
</g>
<g mask="url(#mask-1)">
<use xlink:href="#source-1481"/>
</g>
</svg>

<svg width="64" height="64" version="1.1" viewBox="0 0 16.933 16.933" xmlns="http://www.w3.org/2000/svg">
 <circle cx="8.4665" cy="8.4665" r="7.1436" fill="#c83737" style="paint-order:stroke fill markers"/>
 <path transform="scale(.26458)" d="m25 5.9336a27 27 0 0 0-8 3.6426v19.42l4.002-4.002 3.998 3.998v-23.059z" fill="#fff" stroke-width="3.7796"/>
 <path transform="scale(.26458)" d="m15 11.041a27 27 0 0 0-10 20.959 27 27 0 0 0 10 20.951v-41.91z" fill-rule="evenodd" opacity=".2" stroke-width="5.9388" style="paint-order:fill markers stroke"/>
 <g fill="#fff" opacity=".5" stroke-width=".099" aria-label="Aa">
  <path d="m9.2635 10.66-0.53195 1.4425h1.0658zm-0.22132-0.38634h0.44458l1.1047 2.8985h-0.4077l-0.26403-0.74356h-1.3066l-0.26403 0.74356h-0.41352z" style=""/>
  <path d="m11.987 12.08q-0.43293 0-0.5999 0.09901-0.16696 0.09901-0.16696 0.3378 0 0.19026 0.12425 0.30286 0.12619 0.11066 0.34169 0.11066 0.29704 0 0.47564-0.20967 0.18055-0.21161 0.18055-0.56107v-0.0796zm0.7125-0.14755v1.2406h-0.35722v-0.33004q-0.12231 0.19802-0.3048 0.29315-0.18249 0.09319-0.44652 0.09319-0.33392 0-0.53194-0.18638-0.19608-0.18832-0.19608-0.50282 0-0.36693 0.24462-0.5533 0.24656-0.18638 0.73385-0.18638h0.50088v-0.03495q0-0.24656-0.16308-0.38052-0.16114-0.1359-0.45429-0.1359-0.18638 0-0.36304 0.04465t-0.33975 0.13396v-0.33004q0.19608-0.07572 0.38052-0.1126 0.18443-0.03883 0.35916-0.03883 0.47176 0 0.70473 0.24462 0.23297 0.24462 0.23297 0.74162z" style=""/>
 </g>
</svg>
